argon/scalable/status/weather-clear.svg

<?xml version="1.0" encoding="UTF-8" standalone="no"?>
<svg
   xmlns:dc="http://purl.org/dc/elements/1.1/"
   xmlns:cc="http://creativecommons.org/ns#"
   xmlns:rdf="http://www.w3.org/1999/02/22-rdf-syntax-ns#"
   xmlns:svg="http://www.w3.org/2000/svg"
   xmlns="http://www.w3.org/2000/svg"
   xmlns:sodipodi="http://sodipodi.sourceforge.net/DTD/sodipodi-0.dtd"
   xmlns:inkscape="http://www.inkscape.org/namespaces/inkscape"
   height="16"
   width="16"
   version="1.1"
   id="svg4"
   sodipodi:docname="weather-clear.svg"
   inkscape:version="1.0.1 (3bc2e813f5, 2020-09-07)">
  <metadata
     id="metadata10">
    <rdf:RDF>
      <cc:Work
         rdf:about="">
        <dc:format>image/svg+xml</dc:format>
        <dc:type
           rdf:resource="http://purl.org/dc/dcmitype/StillImage" />
        <dc:title />
      </cc:Work>
    </rdf:RDF>
  </metadata>
  <defs
     id="defs8" />
  <sodipodi:namedview
     pagecolor="#333333"
     bordercolor="#666666"
     borderopacity="1"
     objecttolerance="10"
     gridtolerance="10"
     guidetolerance="10"
     inkscape:pageopacity="0"
     inkscape:pageshadow="2"
     inkscape:window-width="1836"
     inkscape:window-height="1016"
     id="namedview6"
     showgrid="false"
     inkscape:zoom="19.047689"
     inkscape:cx="6.2956983"
     inkscape:cy="7.1136512"
     inkscape:window-x="2004"
     inkscape:window-y="27"
     inkscape:window-maximized="1"
     inkscape:current-layer="layer1"
     inkscape:document-rotation="0" />
  <g
     inkscape:groupmode="layer"
     id="layer1"
     inkscape:label="Icon">
    <path
       id="path2"
       style="fill:#ffff00"
       d="M 7.5 0 L 7.5 2 L 8.5 2 L 8.5 0 L 7.5 0 z M 4.4335938 0.82226562 L 3.5664062 1.3222656 L 4.5683594 3.0546875 L 5.4335938 2.5546875 L 4.4335938 0.82226562 z M 11.566406 0.82226562 L 10.566406 2.5546875 L 11.433594 3.0546875 L 12.433594 1.3222656 L 11.566406 0.82226562 z M 8 3 A 5 5 0 0 0 8 13 A 5 5 0 0 0 8 3 z M 1.3222656 3.5664062 L 0.82226562 4.4335938 L 2.5546875 5.4335938 L 3.0546875 4.5664062 L 1.3222656 3.5664062 z M 14.677734 3.5664062 L 12.945312 4.5664062 L 13.445312 5.4335938 L 15.177734 4.4335938 L 14.677734 3.5664062 z M 0 7.5 L 0 8.5 L 2 8.5 L 2 7.5 L 0 7.5 z M 14 7.5 L 14 8.5 L 16 8.5 L 16 7.5 L 14 7.5 z M 2.5546875 10.566406 L 0.82226562 11.566406 L 1.3222656 12.433594 L 3.0546875 11.431641 L 2.5546875 10.566406 z M 13.445312 10.566406 L 12.945312 11.433594 L 14.677734 12.433594 L 15.177734 11.566406 L 13.445312 10.566406 z M 4.5664062 12.945312 L 3.5664062 14.677734 L 4.4335938 15.177734 L 5.4335938 13.445312 L 4.5664062 12.945312 z M 11.433594 12.945312 L 10.566406 13.445312 L 11.566406 15.177734 L 12.433594 14.677734 L 11.433594 12.945312 z M 7.5 14 L 7.5 16 L 8.5 16 L 8.5 14 L 7.5 14 z " />
  </g>
</svg>

<?xml version="1.0" encoding="UTF-8" standalone="no"?>
<svg
   xmlns:dc="http://purl.org/dc/elements/1.1/"
   xmlns:cc="http://creativecommons.org/ns#"
   xmlns:rdf="http://www.w3.org/1999/02/22-rdf-syntax-ns#"
   xmlns:svg="http://www.w3.org/2000/svg"
   xmlns="http://www.w3.org/2000/svg"
   xmlns:sodipodi="http://sodipodi.sourceforge.net/DTD/sodipodi-0.dtd"
   xmlns:inkscape="http://www.inkscape.org/namespaces/inkscape"
   height="16"
   width="16"
   version="1.1"
   id="svg4"
   sodipodi:docname="weather-clear.svg"
   inkscape:version="1.0.1 (3bc2e813f5, 2020-09-07)">
  <metadata
     id="metadata10">
    <rdf:RDF>
      <cc:Work
         rdf:about="">
        <dc:format>image/svg+xml</dc:format>
        <dc:type
           rdf:resource="http://purl.org/dc/dcmitype/StillImage" />
        <dc:title></dc:title>
      </cc:Work>
    </rdf:RDF>
  </metadata>
  <defs
     id="defs8" />
  <sodipodi:namedview
     pagecolor="#333333"
     bordercolor="#666666"
     borderopacity="1"
     objecttolerance="10"
     gridtolerance="10"
     guidetolerance="10"
     inkscape:pageopacity="0"
     inkscape:pageshadow="2"
     inkscape:window-width="1836"
     inkscape:window-height="1016"
     id="namedview6"
     showgrid="false"
     inkscape:zoom="19.047689"
     inkscape:cx="12.922483"
     inkscape:cy="9.6073583"
     inkscape:window-x="2004"
     inkscape:window-y="27"
     inkscape:window-maximized="1"
     inkscape:current-layer="svg4"
     inkscape:document-rotation="0" />
  <path
     d="M7.5 0v2h1V0zM4.434.822l-.868.5 1.002 1.733.866-.5zm7.132 0l-1 1.733.868.5 1-1.733zM8 3a5 5 0 100 10A5 5 0 008 3zm-6.678.566l-.5.868 1.733 1 .5-.868zm13.356 0l-1.733 1 .5.868 1.733-1zM8 4a4 4 0 014 4 4 4 0 01-4 4 4 4 0 01-4-4 4 4 0 014-4zM0 7.5v1h2v-1zm14 0v1h2v-1zM2.555 10.566l-1.733 1 .5.868 1.733-1.002zm10.89 0l-.5.868 1.733 1 .5-.868zm-8.879 2.38l-1 1.732.868.5 1-1.733zm6.868 0l-.868.5 1 1.732.868-.5zM7.5 14v2h1v-2z"
     fill="gray"
     id="path2"
     style="fill:#ffffff" />
</svg>
